assets/email.svg

<svg width="20" height="16" viewBox="0 0 20 16" fill="none" xmlns="http://www.w3.org/2000/svg">
<path d="M2 16C1.45 16 0.979167 15.8042 0.5875 15.4125C0.195833 15.0208 0 14.55 0 14V2C0 1.45 0.195833 0.979167 0.5875 0.5875C0.979167 0.195833 1.45 0 2 0H18C18.55 0 19.0208 0.195833 19.4125 0.5875C19.8042 0.979167 20 1.45 20 2V14C20 14.55 19.8042 15.0208 19.4125 15.4125C19.0208 15.8042 18.55 16 18 16H2ZM18 4L10.525 8.675C10.4417 8.725 10.3542 8.7625 10.2625 8.7875C10.1708 8.8125 10.0833 8.825 10 8.825C9.91667 8.825 9.82917 8.8125 9.7375 8.7875C9.64583 8.7625 9.55833 8.725 9.475 8.675L2 4V14H18V4ZM10 7L18 2H2L10 7ZM2 4.25V2.775V2.8V2.7875V4.25Z" fill="white"/>
</svg>

<?xml version="1.0" encoding="UTF-8"?>
<svg id="Capa_1" xmlns="http://www.w3.org/2000/svg" version="1.1" viewBox="0 0 20 16">
  <!-- Generator: Adobe Illustrator 29.2.1, SVG Export Plug-In . SVG Version: 2.1.0 Build 116)  -->
  <defs>
    <style>
      .st0 {
        fill: #004582;
      }
    </style>
  </defs>
  <path class="st0" d="M2,16c-.5,0-1-.2-1.4-.6-.4-.4-.6-.9-.6-1.4V2C0,1.5.2,1,.6.6,1,.2,1.5,0,2,0h16C18.5,0,19,.2,19.4.6c.4.4.6.9.6,1.4v12c0,.6-.2,1-.6,1.4-.4.4-.9.6-1.4.6H2ZM18,4l-7.5,4.7c0,0-.2,0-.3.1,0,0-.2,0-.3,0s-.2,0-.3,0c0,0-.2,0-.3-.1L2,4v10h16V4ZM10,7l8-5H2l8,5ZM2,4.3v-1.5h0s0,0,0,0v1.5Z"/>
</svg>
